static/logos/miro-glyph-color.svg

<svg width="50" height="50" viewBox="0 0 50 50" fill="none" xmlns="http://www.w3.org/2000/svg">
<g clip-path="url(#clip0_1_1990)">
<path d="M10.8316 0H39.1683C45.1466 0 50 4.85351 50 10.8316V39.1683C50 45.1466 45.1466 50 39.1683 50H10.8316C4.85351 50 0 45.1466 0 39.1683V10.8316C0 4.85351 4.85351 0 10.8316 0Z" fill="#FFD02F"/>
<path d="M34.7458 6.24438H29.256L33.8285 14.2793L23.7662 6.24438H18.2765L23.3075 16.0698L12.7867 6.24438H7.29688L12.7867 18.7481L7.29688 43.7555H12.7867L23.3075 16.9576L18.2765 43.7555H23.7662L33.8285 15.182L29.256 43.7555H34.7458L44.8081 12.4888L34.7458 6.24438Z" fill="#050038"/>
</g>
<defs>
<clipPath id="clip0_1_1990">
<rect width="50" height="50" fill="white"/>
</clipPath>
</defs>
</svg>

<svg xmlns="http://www.w3.org/2000/svg" width="64" height="64" fill="none" viewBox="0 0 50 50"><g clip-path="url(#a)"><path fill="#FFD02F" d="M10.832 0h28.336C45.147 0 50 4.854 50 10.832v28.336C50 45.147 45.147 50 39.168 50H10.832C4.854 50 0 45.147 0 39.168V10.832C0 4.854 4.854 0 10.832 0Z"/><path fill="#050038" d="M34.746 6.244h-5.49l4.572 8.035-10.062-8.035h-5.49l5.032 9.826-10.521-9.826h-5.49l5.49 12.504-5.49 25.007h5.49l10.52-26.797-5.03 26.797h5.49l10.061-28.573-4.572 28.573h5.49L44.808 12.49 34.746 6.244Z"/></g><defs><clipPath id="a"><path fill="#fff" d="M0 0h50v50H0z"/></clipPath></defs></svg>
